X: 021140
T: Bridgie Con Matt's
S: "Johnny O'Leary of Sliabh Luachra" (#101)
Z: B.Black
L: 1/8
M: 2/4
Q: 250
R: polka
K: G
DF|:GB BA/c/|BG G>F|GB B/c/d/B/|AD FD/F/|
GB (3B/c/B/A/c/|BG G(3E/F/G/|A>G A/B/c/B/|\
AD FD/F/ :|
Be ef/e/|d/e/f/a/ g2|Be f/e/d/B/|AD FD/A/|
Be ef/e/|d/e/f g2|g>e d/e/d/B/|AD FA :|
